public/logos/IT.svg

<?xml version="1.0" encoding="UTF-8"?>
<svg xmlns="http://www.w3.org/2000/svg" xmlns:xlink="http://www.w3.org/1999/xlink" width="154.89pt" height="59pt" viewBox="0 0 154.89 59" version="1.1">
<defs>
<clipPath id="clip1">
  <path d="M 137 15 L 154.890625 15 L 154.890625 41 L 137 41 Z M 137 15 "/>
</clipPath>
</defs>
<g id="surface1">
<g clip-path="url(#clip1)" clip-rule="nonzero">
<path style=" stroke:none;fill-rule:nonzero;fill:rgb(29.208374%,29.803467%,29.098511%);fill-opacity:1;" d="M 145.460938 20.152344 C 146.273438 17.550781 149.847656 15.441406 151.957031 15.441406 C 153.75 15.441406 154.886719 16.414062 154.886719 18.199219 L 154.886719 20.804688 C 154.886719 22.433594 153.261719 23.40625 151.472656 23.40625 C 147.570312 23.40625 145.625 26.820312 145.625 30.882812 L 145.625 38.03125 C 145.625 39.820312 144.804688 40.792969 143.183594 40.792969 L 140.09375 40.792969 C 138.472656 40.792969 137.496094 39.820312 137.496094 38.03125 L 137.496094 18.367188 C 137.496094 16.578125 138.472656 15.605469 140.09375 15.605469 L 142.855469 15.605469 C 144.480469 15.605469 145.460938 16.578125 145.460938 18.367188 L 145.460938 20.152344 "/>
</g>
<path style=" stroke:none;fill-rule:nonzero;fill:rgb(29.208374%,29.803467%,29.098511%);fill-opacity:1;" d="M 91.171875 20.152344 C 91.988281 17.550781 95.570312 15.441406 97.839844 15.441406 C 99.460938 15.441406 100.605469 16.414062 100.605469 18.207031 L 100.605469 20.804688 C 100.605469 22.433594 99.136719 23.40625 97.351562 23.40625 C 93.453125 23.40625 91.503906 26.820312 91.503906 30.882812 L 91.503906 38.035156 C 91.503906 39.820312 90.6875 40.792969 88.902344 40.792969 L 85.8125 40.792969 C 84.191406 40.792969 83.378906 39.820312 83.378906 38.035156 L 83.378906 18.367188 C 83.378906 16.578125 84.191406 15.605469 85.8125 15.605469 L 88.578125 15.605469 C 90.359375 15.605469 91.171875 16.578125 91.171875 18.367188 L 91.171875 20.152344 "/>
<path style=" stroke:none;fill-rule:nonzero;fill:rgb(95.988464%,57.9422%,9.288025%);fill-opacity:1;" d="M 130.667969 12.835938 C 127.09375 12.835938 124.328125 9.910156 124.328125 6.503906 C 124.328125 2.925781 127.09375 0 130.667969 0 C 134.082031 0 136.847656 2.925781 136.847656 6.503906 C 136.847656 9.910156 134.082031 12.835938 130.667969 12.835938 "/>
<path style=" stroke:none;fill-rule:nonzero;fill:rgb(29.208374%,29.803467%,29.098511%);fill-opacity:1;" d="M 23.242188 12.835938 C 19.828125 12.835938 16.902344 9.910156 16.902344 6.503906 C 16.902344 2.925781 19.828125 0 23.242188 0 C 26.820312 0 29.578125 2.925781 29.578125 6.503906 C 29.578125 9.910156 26.65625 12.835938 23.242188 12.835938 "/>
<path style=" stroke:none;fill-rule:nonzero;fill:rgb(29.208374%,29.803467%,29.098511%);fill-opacity:1;" d="M 110.351562 35.433594 C 113.117188 35.433594 115.230469 32.667969 115.230469 30.390625 L 115.230469 29.738281 L 114.414062 29.738281 C 111.324219 29.738281 107.425781 30.558594 107.425781 33.152344 C 107.425781 34.460938 108.566406 35.433594 110.351562 35.433594 Z M 114.414062 25.191406 L 115.230469 25.191406 L 115.230469 24.867188 C 115.230469 22.757812 113.441406 22.097656 111.648438 22.097656 C 110.027344 22.097656 108.238281 22.59375 106.9375 23.082031 C 105.316406 23.890625 104.179688 23.566406 103.363281 21.9375 L 102.714844 20.804688 C 101.902344 19.34375 102.226562 18.035156 103.855469 17.226562 C 105.804688 16.414062 108.730469 15.28125 112.46875 15.28125 C 119.453125 15.28125 123.839844 19.179688 123.839844 25.351562 L 123.839844 38.03125 C 123.839844 39.820312 122.867188 40.792969 121.082031 40.792969 L 118.640625 40.792969 C 116.855469 40.792969 116.046875 39.820312 116.046875 38.03125 L 116.046875 37.867188 C 116.046875 37.539062 116.046875 37.21875 116.046875 37.21875 L 115.882812 37.378906 C 115.882812 37.378906 113.441406 41.28125 108.40625 41.28125 C 103.523438 41.28125 99.957031 38.035156 99.957031 33.804688 C 99.957031 27.144531 108.242188 25.191406 114.414062 25.191406 "/>
<path style=" stroke:none;fill-rule:nonzero;fill:rgb(29.208374%,29.803467%,29.098511%);fill-opacity:1;" d="M 3.414062 22.757812 L 2.601562 22.757812 C 0.972656 22.757812 0 21.9375 0 20.152344 L 0 19.015625 C 0 17.226562 0.972656 16.253906 2.601562 16.253906 L 3.574219 16.253906 L 3.574219 11.703125 C 3.574219 9.910156 4.550781 9.097656 6.179688 9.097656 L 8.9375 9.097656 C 10.726562 9.097656 11.703125 9.910156 11.703125 11.703125 L 11.703125 16.253906 L 14.136719 16.253906 C 15.765625 16.253906 16.738281 17.226562 16.738281 19.015625 L 16.738281 20.152344 C 16.738281 21.9375 15.765625 22.757812 14.136719 22.757812 L 11.703125 22.757812 L 11.703125 30.390625 C 11.703125 32.503906 13 33.316406 14.46875 33.640625 C 16.414062 33.804688 17.0625 34.460938 17.0625 36.242188 L 17.0625 38.523438 C 17.0625 40.46875 15.765625 41.117188 13.652344 41.117188 C 10.074219 41.117188 3.414062 39.332031 3.414062 32.019531 L 3.414062 22.757812 "/>
<path style=" stroke:none;fill-rule:nonzero;fill:rgb(29.208374%,29.803467%,29.098511%);fill-opacity:1;" d="M 19.179688 18.367188 C 19.179688 16.578125 19.988281 15.605469 21.777344 15.605469 L 24.703125 15.605469 C 26.496094 15.605469 27.46875 16.578125 27.46875 18.367188 L 27.46875 38.03125 C 27.46875 39.820312 26.496094 40.792969 24.703125 40.792969 L 21.777344 40.792969 C 19.988281 40.792969 19.179688 39.820312 19.179688 38.03125 L 19.179688 18.367188 "/>
<path style=" stroke:none;fill-rule:nonzero;fill:rgb(29.208374%,29.803467%,29.098511%);fill-opacity:1;" d="M 126.605469 18.367188 C 126.605469 16.578125 127.417969 15.605469 129.046875 15.605469 L 132.136719 15.605469 C 133.757812 15.605469 134.730469 16.578125 134.730469 18.367188 L 134.730469 38.03125 C 134.730469 39.820312 133.757812 40.792969 132.136719 40.792969 L 129.046875 40.792969 C 127.417969 40.792969 126.605469 39.820312 126.605469 38.03125 L 126.605469 18.367188 "/>
<path style=" stroke:none;fill-rule:nonzero;fill:rgb(29.208374%,29.803467%,29.098511%);fill-opacity:1;" d="M 73.625 25.191406 C 73.625 23.082031 72.324219 21.289062 70.046875 21.289062 C 67.613281 21.289062 66.46875 23.082031 65.984375 25.191406 Z M 70.046875 15.28125 C 77.523438 15.28125 81.425781 20.476562 81.425781 27.144531 C 81.425781 28.605469 80.289062 30.0625 78.660156 30.0625 L 65.820312 30.0625 C 66.46875 32.992188 68.910156 34.453125 71.515625 34.453125 C 73.136719 34.453125 74.757812 33.804688 76.0625 33.316406 C 77.523438 32.503906 78.660156 32.667969 79.476562 34.289062 L 80.289062 35.59375 C 80.9375 37.054688 80.773438 38.351562 79.316406 39.167969 C 77.523438 40.304688 74.601562 41.441406 70.855469 41.441406 C 62.082031 41.441406 57.371094 35.105469 57.371094 28.28125 C 57.371094 20.964844 62.246094 15.28125 70.046875 15.28125 "/>
<path style=" stroke:none;fill-rule:nonzero;fill:rgb(29.208374%,29.803467%,29.098511%);fill-opacity:1;" d="M 42.414062 34.460938 C 39.496094 34.460938 37.378906 32.179688 37.378906 28.28125 C 37.378906 24.539062 39.820312 22.261719 42.414062 22.261719 C 45.667969 22.261719 47.460938 25.351562 47.460938 28.28125 C 47.460938 32.667969 44.855469 34.460938 42.414062 34.460938 Z M 47.136719 38.351562 L 47.136719 38.515625 C 47.136719 39.496094 47.136719 41.117188 47.136719 42.414062 C 47.785156 41.765625 48.757812 41.441406 49.894531 41.441406 L 52.820312 41.441406 C 53.957031 41.441406 54.9375 41.765625 55.421875 42.414062 L 55.421875 18.035156 C 55.421875 16.253906 54.441406 15.28125 52.820312 15.28125 L 49.730469 15.28125 C 48.269531 15.28125 47.296875 16.089844 47.136719 17.550781 L 47.136719 17.714844 C 47.136719 17.714844 45.667969 15.28125 40.632812 15.28125 C 34.128906 15.28125 29.414062 20.476562 29.414062 28.28125 C 29.414062 36.082031 33.804688 41.441406 40.46875 41.441406 C 44.367188 41.441406 46.316406 39.332031 47.136719 38.351562 "/>
<path style=" stroke:none;fill-rule:nonzero;fill:rgb(95.988464%,57.9422%,9.288025%);fill-opacity:1;" d="M 55.421875 47.460938 L 55.421875 46.476562 C 55.421875 44.695312 54.441406 43.71875 52.820312 43.71875 L 49.894531 43.71875 C 49.082031 43.71875 48.433594 44.046875 47.945312 44.53125 C 47.621094 45.019531 47.460938 45.503906 47.460938 46.476562 C 47.460938 48.109375 46.640625 49.246094 45.992188 49.894531 C 45.34375 50.542969 44.367188 50.875 42.910156 50.875 C 41.28125 50.875 40.304688 50.550781 39.65625 49.894531 C 39.167969 49.246094 38.191406 48.433594 38.351562 46.476562 C 38.351562 45.503906 38.03125 45.019531 37.703125 44.695312 C 37.378906 44.046875 36.570312 43.71875 35.757812 43.71875 L 32.832031 43.71875 C 31.042969 43.71875 30.226562 44.695312 30.226562 46.476562 L 30.226562 47.621094 C 30.226562 47.621094 30.226562 47.621094 30.390625 48.757812 C 30.71875 54.117188 36.570312 58.828125 42.910156 59 C 49.082031 58.839844 54.9375 54.117188 55.421875 48.757812 C 55.421875 48.757812 55.421875 48.109375 55.421875 47.460938 "/>
</g>
</svg>

<svg xmlns="http://www.w3.org/2000/svg" width="206.52" height="59pt" viewBox="0 0 154.89 59"><defs><clipPath id="a"><path d="M137 15h17.89v26H137Zm0 0"/></clipPath></defs><g clip-path="url(#a)"><path d="M145.46 20.152c.813-2.601 4.388-4.71 6.497-4.71 1.793 0 2.93.972 2.93 2.757v2.606c0 1.629-1.625 2.601-3.414 2.601-3.903 0-5.848 3.414-5.848 7.477v7.148c0 1.79-.82 2.762-2.441 2.762h-3.09c-1.621 0-2.598-.973-2.598-2.762V18.367c0-1.789.977-2.762 2.598-2.762h2.761c1.625 0 2.606.973 2.606 2.762z" style="stroke:none;fill-rule:nonzero;fill:#4a4c4a;fill-opacity:1"/></g><path d="M91.172 20.152c.816-2.601 4.398-4.71 6.668-4.71 1.62 0 2.765.972 2.765 2.765v2.598c0 1.629-1.468 2.601-3.253 2.601-3.899 0-5.848 3.414-5.848 7.477v7.152c0 1.785-.817 2.758-2.602 2.758h-3.09c-1.62 0-2.433-.973-2.433-2.758V18.367c0-1.789.812-2.762 2.433-2.762h2.766c1.781 0 2.594.973 2.594 2.762z" style="stroke:none;fill-rule:nonzero;fill:#4a4c4a;fill-opacity:1"/><path d="M130.668 12.836c-3.574 0-6.34-2.926-6.34-6.332 0-3.578 2.766-6.504 6.34-6.504 3.414 0 6.18 2.926 6.18 6.504 0 3.406-2.766 6.332-6.18 6.332" style="stroke:none;fill-rule:nonzero;fill:#f59418;fill-opacity:1"/><path d="M23.242 12.836c-3.414 0-6.34-2.926-6.34-6.332 0-3.578 2.926-6.504 6.34-6.504 3.578 0 6.336 2.926 6.336 6.504 0 3.406-2.922 6.332-6.336 6.332M110.352 35.434c2.765 0 4.878-2.766 4.878-5.043v-.653h-.816c-3.09 0-6.988.82-6.988 3.414 0 1.309 1.14 2.282 2.926 2.282m4.062-10.243h.816v-.324c0-2.11-1.789-2.77-3.582-2.77-1.62 0-3.41.497-4.71.985-1.622.809-2.758.484-3.575-1.145l-.648-1.132c-.813-1.461-.488-2.77 1.14-3.578 1.95-.813 4.875-1.946 8.614-1.946 6.984 0 11.37 3.899 11.37 10.07v12.68c0 1.79-.972 2.762-2.757 2.762h-2.441c-1.786 0-2.594-.973-2.594-2.762v-.812l-.164.16s-2.442 3.902-7.477 3.902c-4.883 0-8.449-3.246-8.449-7.476 0-6.66 8.285-8.614 14.457-8.614M3.414 22.758h-.812c-1.63 0-2.602-.82-2.602-2.606v-1.136c0-1.79.973-2.762 2.602-2.762h.972v-4.55c0-1.794.977-2.606 2.606-2.606h2.758c1.789 0 2.765.812 2.765 2.605v4.55h2.434c1.629 0 2.601.974 2.601 2.763v1.136c0 1.785-.972 2.606-2.601 2.606h-2.434v7.633c0 2.113 1.297 2.925 2.766 3.25 1.945.164 2.594.82 2.594 2.601v2.281c0 1.946-1.297 2.594-3.41 2.594-3.579 0-10.239-1.785-10.239-9.097zM19.18 18.367c0-1.789.808-2.762 2.597-2.762h2.926c1.793 0 2.766.973 2.766 2.762v19.664c0 1.79-.973 2.762-2.766 2.762h-2.926c-1.789 0-2.597-.973-2.597-2.762zM126.605 18.367c0-1.789.813-2.762 2.442-2.762h3.09c1.62 0 2.593.973 2.593 2.762v19.664c0 1.79-.972 2.762-2.593 2.762h-3.09c-1.629 0-2.442-.973-2.442-2.762zM73.625 25.191c0-2.109-1.3-3.902-3.578-3.902-2.434 0-3.578 1.793-4.063 3.902Zm-3.578-9.91c7.476 0 11.379 5.196 11.379 11.864 0 1.46-1.137 2.918-2.766 2.918H65.82c.649 2.93 3.09 4.39 5.696 4.39 1.62 0 3.242-.648 4.546-1.137 1.461-.812 2.598-.648 3.415.973l.812 1.305c.648 1.46.484 2.758-.973 3.574-1.793 1.137-4.714 2.273-8.46 2.273-8.774 0-13.485-6.336-13.485-13.16 0-7.316 4.875-13 12.676-13M42.414 34.46c-2.918 0-5.035-2.28-5.035-6.179 0-3.742 2.441-6.02 5.035-6.02 3.254 0 5.047 3.09 5.047 6.02 0 4.387-2.606 6.18-5.047 6.18m4.723 3.892v4.062c.648-.648 1.62-.973 2.758-.973h2.925c1.137 0 2.117.325 2.602.973V18.035c0-1.781-.98-2.754-2.602-2.754h-3.09c-1.46 0-2.433.809-2.593 2.27v.164s-1.469-2.434-6.504-2.434c-6.504 0-11.219 5.196-11.219 13 0 7.801 4.39 13.16 11.055 13.16 3.898 0 5.847-2.109 6.668-3.09" style="stroke:none;fill-rule:nonzero;fill:#4a4c4a;fill-opacity:1"/><path d="M55.422 47.46v-.983c0-1.782-.98-2.758-2.602-2.758h-2.925c-.813 0-1.461.328-1.95.812-.324.489-.484.973-.484 1.946 0 1.632-.82 2.77-1.469 3.418-.648.648-1.625.98-3.082.98-1.629 0-2.605-.324-3.254-.98-.488-.649-1.465-1.461-1.304-3.418 0-.973-.32-1.457-.649-1.782-.324-.648-1.133-.976-1.945-.976h-2.926c-1.789 0-2.605.976-2.605 2.758v1.144l.164 1.137c.328 5.36 6.18 10.07 12.52 10.242 6.171-.16 12.026-4.883 12.51-10.242z" style="stroke:none;fill-rule:nonzero;fill:#f59418;fill-opacity:1"/></svg>
